material/.icons/material/domino-mask.svg

<svg xmlns="http://www.w3.org/2000/svg" viewBox="0 0 24 24"><path d="M15.83 9.81c-1.13-.11-2.14.57-2.37 1.69 0 .34 1.35.79 2.59.79 1.24 0 2.36-.79 2.36-1.01 0-.23-.78-1.35-2.58-1.47m-7.65 0c-1.8.12-2.59 1.13-2.59 1.46 0 .23 1.23 1.02 2.36 1.02s2.59-.45 2.59-.79c-.23-1.12-1.35-1.8-2.36-1.69M16.95 16c-1.91 0-3.15-2.25-4.95-2.25S8.85 16 7.05 16C4.69 16 3 13.86 3 10.04 3 7.68 3.68 7 6.71 7S10.54 8.24 12 8.24 14.36 7 17.29 7 21 7.79 21 10.04c0 3.82-1.69 5.96-4.05 5.96z"/></svg>

<?xml version="1.0" encoding="UTF-8"?><!DOCTYPE svg PUBLIC "-//W3C//DTD SVG 1.1//EN" "http://www.w3.org/Graphics/SVG/1.1/DTD/svg11.dtd"><svg xmlns="http://www.w3.org/2000/svg" xmlns:xlink="http://www.w3.org/1999/xlink" version="1.1" id="mdi-domino-mask" width="24" height="24" viewBox="0 0 24 24"><path d="M15.83 9.81C14.7 9.7 13.69 10.38 13.46 11.5C13.46 11.84 14.81 12.29 16.05 12.29C17.29 12.29 18.41 11.5 18.41 11.28C18.41 11.05 17.63 9.93 15.83 9.81M8.18 9.81C6.38 9.93 5.59 10.94 5.59 11.27C5.59 11.5 6.82 12.29 7.95 12.29S10.54 11.84 10.54 11.5C10.31 10.38 9.19 9.7 8.18 9.81M16.95 16C15.04 16 13.8 13.75 12 13.75S8.85 16 7.05 16C4.69 16 3 13.86 3 10.04C3 7.68 3.68 7 6.71 7S10.54 8.24 12 8.24 14.36 7 17.29 7 21 7.79 21 10.04C21 13.86 19.31 16 16.95 16Z" /></svg>
